X:0262
T:The Spa.
M:2/4
L:1/16
Q:1/4=112
I: :: :: :: |: DC
P:ABCDA % printed with a da capo in the book
Z:Jack Campin * www.campin.me.uk * 2009
K:D
P:A
D2dc d2d2|f2d2 f4  |a2f2 agfe|dcde d2d2 | \
D2dc d2d2|f2d2 f4  |a2f2 agfe|d4   d4  :|
P:B
g2g2 f2f2|g2g2 f4  |g2d2 f2d2|g2d2 f4   |\
D2dc d2d2|f2d2 f4  |a2f2 agfe|e4   d2z2:|
P:C
A3B  c2c2|c2e2 e4  |c2e2 fedc|BABc B2E2 |\
A3B  c2c2|c2e2 e4  |c2e2 fedc|c4   B4  :|
P:D
B3c  d2d2|c2e2 a2c2|B3c  d2d2|d3f  edcB |\
A3B  c2c2|c2e2 a2c2|d3f  edcB|B4   A4  :|
<end>
<start>
